!!!SOCIAL_FUNCTION:	songs of social dances
!!!PDT:	1958
!!!OTL: No_27_Dance_Song_of_Grindstone_Village_(b).krn
!!!REG: Northern California
!!!LANG: Non-Tone
!!!LING_GROUP: Penutian
**kern
*staff1
=1-
*clefF4
*k[f#]
*M3/4
2r
8r
8D\
=2
8E\L
8E\J
4E\
8E\L
8D\J
=3
*M2/4
8.E\L
16D\Jk
4E\
=4
(8.E\L
16D\Jk)
8.r
16D\
=5
8.E\L
16E\Jk
16D\
8.r
=6
*M3/4
8.D/L
16BB/Jk
4E\
16E\LK
8.D\J
=7
8.E\L
16D\Jk
8.E\L
16E\Jk
8D\
16r
16D\
=8
*M2/4
8.E\L
16E\Jk
8D\
8r
=9
8.D/L
16BB/Jk
8E\
8r
=10!|:
8.e\L
16e\Jk
16e\LK
8.d\J
=11
4B\
16B\LL
16A\JJ
8r
=12
8.B\L
16d\Jk
16B\LK
8.A\J
=13
8.A\L
16G\Jk
16G\LL
16F#\JJ
8r
=14
*M3/4
12D/L
12D/
24BB/L
24BB/JJ
8.E\L
16E\Jk
16D\LK
8BB\
16D\Jk
=15
*M2/4
8.E\L
16E\Jk
8D\
16r
16D\
=16
8.E\L
16E\Jk
8D\
8r
=17
*M3/4
8.D/L
16BB/Jk
8.E\L
16E\Jk
16D\LK
8BB\
16D\Jk
=18
*M2/4
8.E\L
16E\Jk
8D\
16r
16D\
=19
8.E\L
16E\Jk
8D\
8r
=20
8.D/L
16BB/Jk
8E\
8r
==:|!
*-
